;FLAVOR:Marlin
;TIME:3518
;Filament used: 1.49211m
;Layer height: 0.2
;MINX:64.562
;MINY:62.193
;MINZ:0.2
;MAXX:192.652
;MAXY:210.385
;MAXZ:2.4
;Generated with Cura_SteamEngine 4.4.0
M140 S75
M105
M190 S75
M104 S205
M105
M109 S205
M82 ;absolute extrusion mode
M201 X500.00 Y500.00 Z100.00 E5000.00 ;Setup machine max acceleration
M203 X500.00 Y500.00 Z10.00 E50.00 ;Setup machine max feedrate
M204 P500.00 R1000.00 T500.00 ;Setup Print/Retract/Travel acceleration
M205 X8.00 Y8.00 Z0.40 E5.00 ;Setup Jerk
M220 S100 ;Reset Feedrate
M221 S100 ;Reset Flowrate

G28 ;Home
M420 S1 Z2 ;Enable ABL using saved Mesh and Fade Height

G92 E0 ;Reset Extruder
G1 Z2.0 F3000 ;Move Z Axis up
G1 X10.1 Y20 Z0.28 F5000.0 ;Move to start position
G1 X10.1 Y200.0 Z0.28 F1500.0 E15 ;Draw the first line
G1 X10.4 Y200.0 Z0.28 F5000.0 ;Move to side a little
G1 X10.4 Y20 Z0.28 F1500.0 E30 ;Draw the second line
G92 E0 ;Reset Extruder
G1 Z2.0 F3000 ;Move Z Axis up

G92 E0
G92 E0
G1 F2700 E-5
;LAYER_COUNT:12
;LAYER:0
M107
G0 F6000 X84.261 Y90.27 Z0.2
;TYPE:SKIRT
G1 F2700 E0
G1 F1200 X84.788 Y89.795 E0.0236
G1 X84.981 Y89.632 E0.032
G1 X85.592 Y89.152 E0.05784
G1 X86.059 Y88.811 E0.07708
G1 X86.941 Y88.23 E0.1122
G1 X87.25 Y88.047 E0.12415
G1 X87.977 Y87.653 E0.15165
G1 X88.167 Y87.559 E0.1587
G1 X88.87 Y87.241 E0.18436
G1 X89.377 Y87.033 E0.20259
G1 X90.094 Y86.768 E0.22801
G1 X90.393 Y86.669 E0.23849
G1 X91.123 Y86.455 E0.26379
G1 X91.998 Y86.231 E0.29383
G1 X92.222 Y86.176 E0.3015
G1 X94.041 Y85.751 E0.36363
G1 X96.509 Y85.1 E0.44853
G1 X98.907 Y84.394 E0.53167
G1 X101.296 Y83.617 E0.61523
G1 X103.674 Y82.769 E0.6992
G1 X106.028 Y81.853 E0.78321
G1 X108.329 Y80.881 E0.86629
G1 X110.648 Y79.824 E0.95105
G1 X112.868 Y78.736 E1.03328
G1 X115.126 Y77.548 E1.11814
G1 X117.315 Y76.316 E1.20169
G1 X119.451 Y75.033 E1.28456
G1 X121.601 Y73.658 E1.36945
G1 X123.658 Y72.259 E1.45219
G1 X125.725 Y70.765 E1.53701
G1 X127.688 Y69.26 E1.61928
G1 X129.697 Y67.629 E1.70535
G1 X131.225 Y66.317 E1.77234
G1 X131.424 Y66.15 E1.78098
G1 X131.948 Y65.721 E1.8035
G1 X132.759 Y65.116 E1.83715
G1 X133.027 Y64.935 E1.84791
G1 X133.482 Y64.644 E1.86587
G1 X133.741 Y64.487 E1.87595
G1 X134.378 Y64.13 E1.90023
G1 X134.698 Y63.964 E1.91222
G1 X135.557 Y63.564 E1.94374
G1 X136.091 Y63.343 E1.96296
G1 X137.111 Y62.979 E1.99898
G1 X137.415 Y62.887 E2.00955
G1 X138.021 Y62.722 E2.03044
G1 X138.477 Y62.612 E2.04604
G1 X139.189 Y62.465 E2.07022
G1 X139.456 Y62.419 E2.07923
G1 X140.373 Y62.3 E2.10999
G1 X140.949 Y62.25 E2.12922
G1 X141.487 Y62.217 E2.14714
G1 X141.78 Y62.206 E2.1569
G1 X142.091 Y62.198 E2.16724
G1 X142.523 Y62.194 E2.18161
G1 X142.624 Y62.194 E2.18497
G1 X164.278 Y62.193 E2.90519
G1 X164.441 Y62.194 E2.91061
G1 X165.118 Y62.204 E2.93313
G1 X165.402 Y62.212 E2.94258
G1 X165.624 Y62.221 E2.94997
G1 X166.325 Y62.272 E2.97334
G1 X166.926 Y62.335 E2.99344
G1 X168.04 Y62.51 E3.03095
G1 X168.359 Y62.577 E3.04179
G1 X168.941 Y62.716 E3.06169
G1 X169.412 Y62.842 E3.07791
G1 X170.155 Y63.069 E3.10375
G1 X170.358 Y63.139 E3.11089
G1 X171.01 Y63.387 E3.13409
G1 X171.41 Y63.554 E3.14851
G1 X171.887 Y63.767 E3.16588
G1 X172.083 Y63.86 E3.1731
G1 X172.707 Y64.18 E3.19642
G1 X172.943 Y64.311 E3.2054
G1 X173.564 Y64.683 E3.22948
G1 X173.896 Y64.897 E3.24262
G1 X174.487 Y65.306 E3.26652
G1 X174.688 Y65.455 E3.27484
G1 X175.17 Y65.834 E3.29524
G1 X175.544 Y66.145 E3.31141
G1 X176.217 Y66.753 E3.34158
G1 X176.38 Y66.913 E3.34918
G1 X176.883 Y67.441 E3.37343
G1 X177.213 Y67.811 E3.38992
G1 X177.67 Y68.359 E3.41365
G1 X177.892 Y68.643 E3.42564
G1 X178.337 Y69.253 E3.45076
G1 X178.565 Y69.59 E3.46429
G1 X178.879 Y70.083 E3.48373
G1 X179.296 Y70.776 E3.51063
G1 X179.398 Y70.948 E3.51728
G1 X190.169 Y89.607 E4.23386
G1 X190.25 Y89.75 E4.23933
G1 X190.575 Y90.333 E4.26153
G1 X190.701 Y90.566 E4.27034
G1 X190.831 Y90.813 E4.27962
G1 X191.179 Y91.538 E4.30637
G1 X191.391 Y92.024 E4.324
G1 X191.686 Y92.773 E4.35078
G1 X191.801 Y93.1 E4.36231
G1 X192.049 Y93.9 E4.39016
G1 X192.156 Y94.299 E4.4039
G1 X192.323 Y95.018 E4.42845
G1 X192.368 Y95.246 E4.43618
G1 X192.487 Y95.98 E4.46092
G1 X192.563 Y96.574 E4.48083
G1 X192.652 Y97.97 E4.52736
G1 X192.652 Y98.597 E4.54821
G1 X192.597 Y99.692 E4.58468
G1 X192.538 Y100.282 E4.6044
G1 X192.381 Y101.336 E4.63984
G1 X192.332 Y101.582 E4.64819
G1 X192.2 Y102.164 E4.66803
G1 X192.139 Y102.402 E4.67621
G1 X192.035 Y102.78 E4.68925
G1 X191.538 Y104.467 E4.74774
G1 X190.868 Y106.867 E4.83062
G1 X190.249 Y109.354 E4.91586
G1 X189.708 Y111.818 E4.99976
G1 X189.247 Y114.261 E5.08245
G1 X188.849 Y116.74 E5.16596
G1 X188.518 Y119.255 E5.25033
G1 X188.262 Y121.743 E5.33352
G1 X188.074 Y124.275 E5.41796
G1 X187.959 Y126.773 E5.50114
G1 X187.915 Y129.295 E5.58503
G1 X187.941 Y131.784 E5.66782
G1 X188.041 Y134.352 E5.7533
G1 X188.206 Y136.813 E5.83533
G1 X188.449 Y139.344 E5.9199
G1 X188.761 Y141.858 E6.00416
G1 X189.138 Y144.321 E6.08703
G1 X189.592 Y146.809 E6.17115
G1 X189.975 Y148.658 E6.23395
G1 X190.117 Y149.517 E6.26291
G1 X190.145 Y149.74 E6.27039
G1 X190.223 Y150.684 E6.30189
G1 X190.247 Y151.303 E6.3225
G1 X190.239 Y152.317 E6.35622
G1 X190.22 Y152.672 E6.36805
G1 X190.169 Y153.295 E6.38884
G1 X190.13 Y153.647 E6.40062
G1 X190.006 Y154.475 E6.42846
G1 X189.943 Y154.809 E6.43977
G1 X189.808 Y155.428 E6.46084
G1 X189.744 Y155.685 E6.46965
G1 X189.574 Y156.292 E6.49062
G1 X189.468 Y156.633 E6.50249
G1 X189.283 Y157.179 E6.52167
G1 X189.17 Y157.485 E6.53252
G1 X188.823 Y158.317 E6.5625
G1 X188.647 Y158.695 E6.57637
G1 X188.38 Y159.231 E6.59628
G1 X188.047 Y159.855 E6.61981
G1 X187.868 Y160.177 E6.63206
G1 X176.952 Y179.078 E7.35802
G1 X176.87 Y179.218 E7.36342
G1 X176.603 Y179.665 E7.38074
G1 X176.416 Y179.965 E7.39249
G1 X176.158 Y180.367 E7.40838
G1 X175.757 Y180.951 E7.43194
G1 X175.491 Y181.312 E7.44686
G1 X174.929 Y182.013 E7.47674
G1 X174.726 Y182.246 E7.48702
G1 X174.46 Y182.54 E7.50021
G1 X174.253 Y182.761 E7.51028
G1 X173.365 Y183.609 E7.55112
G1 X172.888 Y184.016 E7.57197
G1 X172.229 Y184.536 E7.59989
G1 X171.845 Y184.816 E7.6157
G1 X170.708 Y185.543 E7.66058
G1 X170.143 Y185.857 E7.68208
G1 X169.304 Y186.277 E7.71329
G1 X168.725 Y186.517 E7.73414
G1 X167.953 Y186.812 E7.76162
G1 X166.939 Y187.145 E7.79712
G1 X166.735 Y187.201 E7.80416
G1 X166.218 Y187.329 E7.82187
G1 X165.716 Y187.441 E7.83898
G1 X165.565 Y187.474 E7.84412
G1 X163.401 Y187.925 E7.91764
G1 X161.003 Y188.496 E7.99963
G1 X158.513 Y189.163 E8.08537
G1 X156.125 Y189.877 E8.16827
G1 X153.76 Y190.657 E8.25109
G1 X151.359 Y191.525 E8.33601
G1 X149.018 Y192.448 E8.41971
G1 X146.692 Y193.442 E8.50384
G1 X144.44 Y194.478 E8.58628
G1 X142.159 Y195.609 E8.67097
G1 X139.961 Y196.776 E8.75374
G1 X137.742 Y198.037 E8.83862
G1 X135.595 Y199.338 E8.92212
G1 X133.492 Y200.695 E9.00537
G1 X131.424 Y202.116 E9.08882
G1 X129.363 Y203.617 E9.17362
G1 X127.386 Y205.145 E9.25673
G1 X125.626 Y206.585 E9.33236
G1 X125.265 Y206.868 E9.34762
G1 X124.699 Y207.293 E9.37116
G1 X123.855 Y207.868 E9.40513
G1 X123.624 Y208.01 E9.41415
G1 X123.256 Y208.226 E9.42834
G1 X123.08 Y208.325 E9.43506
G1 X122.397 Y208.679 E9.46064
G1 X121.977 Y208.878 E9.4761
G1 X121.292 Y209.174 E9.50092
G1 X120.908 Y209.325 E9.51464
G1 X120.193 Y209.578 E9.53987
G1 X119.987 Y209.643 E9.54705
G1 X119.009 Y209.903 E9.58071
G1 X118.253 Y210.067 E9.60644
G1 X117.164 Y210.247 E9.64315
G1 X116.821 Y210.286 E9.65463
G1 X115.807 Y210.354 E9.68844
G1 X114.413 Y210.383 E9.73481
G1 X114.184 Y210.385 E9.74243
G1 X93.23 Y210.385 E10.43936
G1 X93.01 Y210.383 E10.44668
G1 X91.71 Y210.357 E10.48992
G1 X90.39 Y210.251 E10.53397
G1 X89.69 Y210.152 E10.55748
G1 X88.893 Y210.009 E10.58441
G1 X88.663 Y209.959 E10.59224
G1 X87.63 Y209.681 E10.62782
G1 X86.993 Y209.476 E10.65008
G1 X86.088 Y209.14 E10.68219
G1 X85.858 Y209.043 E10.69049
G1 X85.537 Y208.902 E10.70215
G1 X85.25 Y208.77 E10.71266
G1 X84.468 Y208.372 E10.74184
G1 X84.286 Y208.27 E10.74878
G1 X83.706 Y207.921 E10.7713
G1 X83.332 Y207.68 E10.78609
G1 X82.754 Y207.28 E10.80947
G1 X82.486 Y207.082 E10.82056
G1 X82.008 Y206.709 E10.84072
G1 X81.799 Y206.536 E10.84975
G1 X81.128 Y205.932 E10.87977
G1 X80.704 Y205.518 E10.89948
G1 X79.933 Y204.683 E10.93728
G1 X79.631 Y204.32 E10.95299
G1 X79.212 Y203.784 E10.97562
G1 X79.026 Y203.53 E10.98609
G1 X78.486 Y202.719 E11.01849
G1 X77.752 Y201.504 E11.06571
G1 X77.64 Y201.315 E11.07301
G1 X67.039 Y182.95 E11.7783
G1 X66.959 Y182.809 E11.78369
G1 X66.592 Y182.151 E11.80875
G1 X66.205 Y181.39 E11.83714
G1 X65.981 Y180.903 E11.85497
G1 X65.802 Y180.49 E11.86994
G1 X65.7 Y180.242 E11.87886
G1 X65.429 Y179.512 E11.90476
G1 X65.345 Y179.258 E11.91366
G1 X65.171 Y178.677 E11.93383
G1 X65.115 Y178.47 E11.94096
G1 X64.966 Y177.85 E11.96217
G1 X64.862 Y177.353 E11.97906
G1 X64.685 Y176.206 E12.01766
G1 X64.618 Y175.543 E12.03983
G1 X64.562 Y174.406 E12.07769
G1 X64.563 Y174.054 E12.0894
G1 X64.572 Y173.645 E12.103
G1 X64.582 Y173.395 E12.11132
G1 X64.65 Y172.534 E12.14005
G1 X64.683 Y172.257 E12.14933
G1 X64.768 Y171.676 E12.16886
G1 X64.822 Y171.365 E12.17936
G1 X64.927 Y170.839 E12.1972
G1 X64.973 Y170.634 E12.20419
G1 X65.051 Y170.307 E12.21537
G1 X65.118 Y170.046 E12.22433
G1 X65.225 Y169.66 E12.23765
G1 X65.465 Y168.849 E12.26578
G1 X65.513 Y168.691 E12.27127
G1 X65.898 Y167.46 E12.31417
G1 X66.582 Y165.025 E12.3983
G1 X67.191 Y162.604 E12.48133
G1 X67.742 Y160.123 E12.56586
G1 X68.216 Y157.641 E12.6499
G1 X68.612 Y155.204 E12.73202
G1 X68.951 Y152.672 E12.81698
G1 X69.214 Y150.172 E12.90059
G1 X69.406 Y147.66 E12.98439
G1 X69.526 Y145.174 E13.06717
G1 X69.576 Y142.648 E13.1512
G1 X69.555 Y140.127 E13.23505
G1 X69.462 Y137.604 E13.31902
G1 X69.298 Y135.076 E13.40328
G1 X69.067 Y132.609 E13.48569
G1 X68.759 Y130.09 E13.5701
G1 X68.385 Y127.607 E13.65362
G1 X67.889 Y124.861 E13.74643
G1 X67.776 Y124.068 E13.77307
G1 X67.713 Y123.475 E13.7929
G1 X67.659 Y122.741 E13.81738
G1 X67.642 Y122.304 E13.83193
G1 X67.651 Y121.26 E13.86665
G1 X67.668 Y120.957 E13.87675
G1 X67.734 Y120.228 E13.90109
G1 X67.777 Y119.879 E13.91279
G1 X67.826 Y119.526 E13.92464
G1 X67.861 Y119.302 E13.93218
G1 X68.052 Y118.356 E13.96428
G1 X68.185 Y117.819 E13.98268
G1 X68.438 Y116.951 E14.01275
G1 X68.562 Y116.583 E14.02567
G1 X68.853 Y115.814 E14.05301
G1 X68.932 Y115.627 E14.05977
G1 X69.038 Y115.384 E14.06858
G1 X69.186 Y115.056 E14.08055
G1 X69.596 Y114.24 E14.11093
G1 X70.189 Y113.172 E14.15156
G1 X70.283 Y113.006 E14.1579
G1 X81.046 Y94.392 E14.87305
G1 X81.108 Y94.286 E14.87713
G1 X81.401 Y93.792 E14.89624
G1 X81.82 Y93.14 E14.92202
G1 X82.059 Y92.795 E14.93597
G1 X82.467 Y92.243 E14.9588
G1 X82.722 Y91.92 E14.97249
G1 X83.201 Y91.354 E14.99715
G1 X83.392 Y91.143 E15.00662
G1 X83.922 Y90.596 E15.03195
G1 X84.261 Y90.27 E15.0476
G0 F6000 X84.539 Y90.559
G1 F1200 X85.047 Y90.101 E15.07034
G1 X85.24 Y89.938 E15.07875
G1 X85.828 Y89.475 E15.10364
G1 X86.295 Y89.134 E15.12287
G1 X87.145 Y88.574 E15.15673
G1 X87.454 Y88.391 E15.16867
G1 X88.155 Y88.011 E15.19519
G1 X88.345 Y87.917 E15.20224
G1 X89.022 Y87.611 E15.22695
G1 X89.529 Y87.403 E15.24518
G1 X90.22 Y87.147 E15.26969
G1 X90.519 Y87.048 E15.28016
G1 X91.222 Y86.842 E15.30453
G1 X92.097 Y86.618 E15.33457
G1 X92.313 Y86.565 E15.34197
G1 X94.162 Y86.133 E15.40512
G1 X96.619 Y85.485 E15.48964
G1 X99.007 Y84.782 E15.57243
G1 X101.45 Y83.987 E15.65788
G1 X103.806 Y83.147 E15.74107
G1 X106.162 Y82.23 E15.82516
G1 X108.501 Y81.242 E15.90961
G1 X110.811 Y80.189 E15.99405
G1 X113.052 Y79.091 E16.07705
G1 X115.329 Y77.893 E16.16263
G1 X117.511 Y76.665 E16.2459
G1 X119.668 Y75.37 E16.32958
G1 X121.795 Y74.009 E16.41357
G1 X123.895 Y72.581 E16.49803
G1 X125.974 Y71.078 E16.58336
G1 X127.961 Y69.555 E16.66663
G1 X129.908 Y67.975 E16.75003
G1 X131.485 Y66.62 E16.81918
G1 X131.677 Y66.459 E16.82751
G1 X132.201 Y66.03 E16.85004
G1 X132.983 Y65.448 E16.88246
G1 X133.251 Y65.267 E16.89322
G1 X133.689 Y64.986 E16.91052
G1 X133.948 Y64.829 E16.9206
G1 X134.562 Y64.485 E16.94401
G1 X134.882 Y64.319 E16.956
G1 X135.71 Y63.934 E16.98637
G1 X136.244 Y63.713 E17.00559
G1 X137.227 Y63.361 E17.04032
G1 X137.531 Y63.269 E17.05088
G1 X138.115 Y63.111 E17.071
G1 X138.571 Y63.001 E17.0866
G1 X139.257 Y62.859 E17.1099
G1 X139.524 Y62.813 E17.11892
G1 X140.407 Y62.699 E17.14853
G1 X140.983 Y62.649 E17.16776
G1 X141.502 Y62.616 E17.18505
G1 X141.795 Y62.605 E17.19481
G1 X142.095 Y62.598 E17.20479
G1 X142.527 Y62.594 E17.21916
G1 X142.625 Y62.594 E17.22242
G1 X164.279 Y62.593 E17.94263
G1 X164.436 Y62.594 E17.94785
G1 X165.113 Y62.604 E17.97037
G1 X165.385 Y62.612 E17.97942
G1 X165.607 Y62.621 E17.98681
G1 X166.283 Y62.67 E18.00936
G1 X166.884 Y62.733 E18.02945
G1 X167.958 Y62.901 E18.06561
G1 X168.277 Y62.968 E18.07645
G1 X168.837 Y63.102 E18.0956
G1 X169.308 Y63.228 E18.11182
G1 X170.025 Y63.447 E18.13675
G1 X170.228 Y63.517 E18.1439
G1 X170.856 Y63.756 E18.16625
G1 X171.256 Y63.923 E18.18066
G1 X171.716 Y64.128 E18.19741
G1 X171.912 Y64.221 E18.20463
G1 X172.512 Y64.53 E18.22708
G1 X172.748 Y64.661 E18.23605
G1 X173.347 Y65.019 E18.25926
G1 X173.679 Y65.233 E18.2724
G1 X174.248 Y65.628 E18.29544
G1 X174.449 Y65.777 E18.30376
G1 X174.914 Y66.142 E18.32342
G1 X175.288 Y66.453 E18.3396
G1 X175.936 Y67.038 E18.36864
G1 X176.099 Y67.198 E18.37623
G1 X176.585 Y67.707 E18.39964
G1 X176.915 Y68.077 E18.41613
G1 X177.355 Y68.605 E18.43899
G1 X177.577 Y68.889 E18.45098
G1 X178.005 Y69.477 E18.47517
G1 X178.233 Y69.814 E18.4887
G1 X178.536 Y70.289 E18.50744
G1 X178.953 Y70.982 E18.53434
G1 X179.051 Y71.148 E18.54075
G1 X189.822 Y89.807 E19.25733
G1 X189.901 Y89.945 E19.26262
G1 X190.226 Y90.528 E19.28482
G1 X190.347 Y90.752 E19.29329
G1 X190.477 Y90.999 E19.30257
G1 X190.813 Y91.698 E19.32837
G1 X191.025 Y92.184 E19.346
G1 X191.309 Y92.905 E19.37178
G1 X191.424 Y93.232 E19.3833
G1 X191.662 Y94.003 E19.41014
G1 X191.769 Y94.402 E19.42388
G1 X191.93 Y95.095 E19.44754
G1 X191.975 Y95.323 E19.45527
G1 X192.09 Y96.031 E19.47913
G1 X192.166 Y96.625 E19.49905
G1 X192.252 Y97.97 E19.54388
G1 X192.252 Y98.597 E19.56473
G1 X192.199 Y99.652 E19.59986
G1 X192.14 Y100.242 E19.61958
G1 X191.989 Y101.258 E19.65375
G1 X191.94 Y101.504 E19.66209
G1 X191.812 Y102.065 E19.68123
G1 X191.751 Y102.303 E19.6894
G1 X191.651 Y102.667 E19.70196
G1 X191.169 Y104.303 E19.75868
G1 X190.471 Y106.8 E19.84492
G1 X189.864 Y109.242 E19.92861
G1 X189.319 Y111.723 E20.01309
G1 X188.852 Y114.195 E20.09677
G1 X188.45 Y116.701 E20.18118
G1 X188.122 Y119.194 E20.26482
G1 X187.863 Y121.709 E20.34891
G1 X187.677 Y124.227 E20.43288
G1 X187.559 Y126.782 E20.51795
G1 X187.515 Y129.293 E20.60148
G1 X187.541 Y131.804 E20.685
G1 X187.641 Y134.356 E20.76995
G1 X187.808 Y136.848 E20.85302
G1 X188.051 Y139.391 E20.93799
G1 X188.364 Y141.902 E21.02215
G1 X188.743 Y144.383 E21.10562
G1 X189.206 Y146.916 E21.19127
G1 X189.583 Y148.739 E21.25318
G1 X189.72 Y149.566 E21.28106
G1 X189.748 Y149.789 E21.28854
G1 X189.823 Y150.699 E21.31891
G1 X189.847 Y151.318 E21.33951
G1 X189.84 Y152.296 E21.37204
G1 X189.821 Y152.651 E21.38387
G1 X189.772 Y153.251 E21.40389
G1 X189.733 Y153.603 E21.41567
G1 X189.613 Y154.401 E21.44251
G1 X189.55 Y154.735 E21.45381
G1 X189.42 Y155.331 E21.4741
G1 X189.356 Y155.588 E21.48291
G1 X189.192 Y156.173 E21.50312
G1 X189.086 Y156.514 E21.515
G1 X188.908 Y157.04 E21.53346
G1 X188.795 Y157.346 E21.54431
G1 X188.46 Y158.148 E21.57322
G1 X188.284 Y158.526 E21.58709
G1 X188.027 Y159.043 E21.60629
G1 X187.694 Y159.667 E21.62982
G1 X187.521 Y159.977 E21.64163
G1 X176.605 Y178.878 E22.36759
G1 X176.526 Y179.013 E22.37279
G1 X176.259 Y179.46 E22.39011
G1 X176.08 Y179.749 E22.40141
G1 X175.822 Y180.151 E22.4173
G1 X175.435 Y180.714 E22.44002
G1 X175.169 Y181.075 E22.45494
G1 X174.627 Y181.75 E22.48373
G1 X174.424 Y181.983 E22.49401
G1 X174.168 Y182.266 E22.5067
G1 X173.961 Y182.487 E22.51677
G1 X173.105 Y183.305 E22.55615
G1 X172.628 Y183.712 E22.57701
G1 X171.993 Y184.213 E22.60391
G1 X171.609 Y184.493 E22.61972
G1 X170.513 Y185.193 E22.66297
G1 X169.948 Y185.507 E22.68447
G1 X169.125 Y185.919 E22.71508
G1 X168.583 Y186.144 E22.7346
G1 X167.811 Y186.439 E22.76209
G1 X166.833 Y186.759 E22.79631
